build/assets/fonts/26eabf7a3b75ddbb402d926bb9510afa.svg

<svg width="100" height="60" viewBox="0 0 100 60" version="1.1" xmlns="http://www.w3.org/2000/svg" xmlns:xlink="http://www.w3.org/1999/xlink"><title>OkPay-dark</title><desc>Created with Sketch.</desc><g id="Dark-Payment-badges" stroke="none" stroke-width="1" fill="none" fill-rule="evenodd" transform="translate(-450.000000, -689.000000)"><g id="OkPay-dark" transform="translate(450.000000, 689.000000)"><rect id="Rectangle" fill="#D2642C" x="0" y="0" width="100" height="60" rx="4"/><path d="M85.1174431,22.4053139 L83.9882627,22.4053139 C83.2657583,22.4053139 82.7293555,22.8902628 82.3136077,23.4820292 L81.1966095,25.0740438 C81.1959615,25.0747007 81.1959615,25.0753577 81.1953135,25.0760146 L78.7758634,28.5220292 L76.677944,25.5363942 C76.6683538,25.5214161 76.6632995,25.5077518 76.6524133,25.4922482 L75.2392855,23.4859708 C74.8225009,22.8947299 74.2807846,22.4105693 73.5584098,22.4105693 L72.5116532,22.4105693 C71.7891489,22.4105693 71.3210438,22.894073 71.7392539,23.484 L73.160676,25.4940876 C73.1637863,25.4980292 73.1676743,25.5019708 73.1709142,25.506438 L77.2169387,31.2186131 L77.2169387,37.6854745 C77.2169387,38.4095474 77.8084203,39.0006569 78.5310543,39 L79.0206725,38.9986861 C79.7433065,38.9981606 80.3347881,38.404292 80.3347881,37.680219 L80.3347881,31.2121752 L84.6449317,25.1285693 C84.6582802,25.1110949 84.6756462,25.094146 84.6883468,25.0760146 L85.8150648,23.4800584 C86.2331454,22.8889489 85.8399475,22.4053139 85.1174431,22.4053139" id="Fill-1" fill="#FFF"/><path d="M37.9536532,30.1809197 L42.0135447,26.2726861 C42.0323363,26.2558686 44.8834746,23.5113285 44.8834746,23.5113285 C45.3965499,23.0166569 44.8444658,22.4053139 44.1414011,22.4053139 L42.5976392,22.4053139 C41.8948336,22.4053139 41.5397373,22.8110365 41.0275692,23.3076788 L38.0223398,26.2209197 C38.0197478,26.2234161 38.0181926,26.2260438 38.0153415,26.2293285 L36.0814921,28.1039562 L36.0814921,25.9783796 L36.0731979,25.9783796 C36.0751419,25.9498686 36.0814921,25.9220146 36.0814921,25.8935036 L36.0814921,23.7225985 C36.0814921,22.9985255 35.5065989,22.4053139 34.8036637,22.4053139 L34.2296778,22.4053139 C33.5270018,22.4053139 32.9518494,22.9985255 32.9518494,23.7225985 L32.9518494,25.8935036 C32.9518494,25.9220146 32.9583292,25.9498686 32.9601436,25.9783796 L32.9518494,25.9783796 L32.9518494,37.6828467 C32.9518494,38.4069197 33.5270018,39 34.2296778,39 L34.8036637,39 C35.5065989,39 36.0814921,38.4069197 36.0814921,37.6828467 L36.0814921,32.4418248 L38.8365989,35.2766277 L38.8398389,35.2766277 L41.5517898,38.0699124 C42.0493135,38.5812701 42.3919685,39 43.0950333,39 L44.6407391,39 C45.3435447,39 45.6430438,38.1430949 45.1455201,37.6316058 L37.9536532,30.1809197" id="Fill-3" fill="#FFF"/><path d="M68.5185044,31.8052555 L65.4935762,31.8052555 C65.1303152,31.8052555 64.9456392,31.5310511 65.0818459,31.1953577 L66.7524834,27.1004234 C66.8894676,26.7647299 67.1138004,26.7647299 67.251303,27.0997664 L68.9297163,31.1960146 C69.0672189,31.5310511 68.8817653,31.8052555 68.5185044,31.8052555 L68.5185044,31.8052555 Z M74.5947986,37.3574015 L74.6025744,37.3574015 L69.3287461,24.2443358 L69.3261541,24.2443358 L69.0787531,23.6285255 C68.8089317,22.9556934 67.9936357,22.4053139 67.2672434,22.4053139 L66.7430228,22.4053139 C66.0166305,22.4053139 65.2019825,22.9563504 64.9341051,23.6298394 L64.6898144,24.2443358 L64.6808722,24.2443358 L59.4270018,37.2880292 L59.4288161,37.2880292 L59.230662,37.7781022 C58.9588967,38.4504088 59.3322662,39 60.0586585,39 L61.2344939,39 C61.9608862,39 62.3023748,38.4444964 62.5548301,37.7650949 L62.7319895,37.2880292 L62.7391173,37.2880292 L63.8010368,34.4637372 L70.2232259,34.4637372 L70.3101856,34.6905109 L70.374725,34.8254453 L71.3216918,37.3574015 L71.3249317,37.3574015 L71.4770788,37.7650949 C71.7303117,38.4444964 72.1740525,39 72.9010928,39 L73.9407215,39 C74.6677618,39 75.0391874,38.4509343 74.7661261,37.7794161 L74.5947986,37.3574015 L74.5947986,37.3574015 Z" id="Fill-4" fill="#FFF"/><path d="M58.2485744,28.630292 C58.1270123,28.9376058 57.9499825,29.1936788 57.71269,29.4041606 L57.715282,29.4016642 L57.713338,29.4041606 C57.2375867,29.8236788 56.5292084,30.0525547 55.5751138,30.0525547 L53.8519895,30.0525547 C53.4830263,30.0525547 53.181324,29.7562774 53.181324,29.3939124 L53.181324,25.7002336 C53.181324,25.3385255 53.4830263,25.0417226 53.8519895,25.0417226 L55.5751138,25.0417226 C56.5292084,25.0417226 57.2375867,25.2704672 57.71269,25.6911679 C57.9505009,25.9012555 58.1270123,26.1553577 58.2485744,26.4631971 C58.368711,26.7705109 58.4313065,27.1290657 58.4313065,27.5418832 C58.4313065,27.9587737 58.368711,28.3204818 58.2485744,28.630292 L58.2485744,28.630292 Z M61.3598144,29.7582482 C61.6283398,29.1112993 61.7607881,28.3704088 61.7607881,27.5418832 C61.7607881,26.719927 61.6283398,25.9835036 61.3598144,25.3404964 C61.0925849,24.6974891 60.6885009,24.1477664 60.1532644,23.7069635 C59.090697,22.8325839 57.5431769,22.4053139 55.5751138,22.4053139 L51.3161611,22.4053139 C50.5790123,22.4053139 49.9752189,22.9985255 49.9752189,23.7225985 L49.9752189,37.6828467 C49.9752189,38.4069197 50.5790123,39 51.3161611,39 L51.8403818,39 C52.5776602,39 53.181324,38.4069197 53.181324,37.6828467 L53.181324,32.6888321 L55.5751138,32.6888321 C57.5431769,32.6888321 59.090697,32.2649781 60.1526165,31.392438 C60.6865569,30.9541314 61.0925849,30.4038832 61.3598144,29.7582482 L61.3598144,29.7582482 Z" id="Fill-5" fill="#FFF"/><path d="M26.9997093,34.6595036 C26.5598564,35.2105401 26.0566305,35.6129781 25.475387,35.8800876 C24.8941436,36.1471971 24.2302172,36.2826569 23.4698704,36.2826569 C22.7077093,36.2826569 22.043394,36.1471971 21.4599475,35.8800876 C20.8742977,35.6129781 20.3688687,35.2065985 19.9249982,34.6549051 C19.4042767,34.0118978 19.0366095,33.2067591 18.8144799,32.2570949 L18.6094571,30.8745109 C18.6031068,30.7914745 18.5987005,30.6164672 18.5963678,30.4284526 C18.5922207,30.2313723 18.5900175,30.0123504 18.5900175,29.8334015 C18.5900175,29.6798102 18.5922207,29.5532847 18.5944238,29.5008613 L18.75331,28.118146 C18.9601471,27.0369635 19.3517898,26.1313139 19.9249982,25.4182774 L19.9225359,25.4227445 L19.9249982,25.4227445 C20.3688687,24.8665839 20.8742977,24.464146 21.4599475,24.1976934 C22.043394,23.9305839 22.7077093,23.7951241 23.4698704,23.7951241 C24.2302172,23.7951241 24.8941436,23.9305839 25.475387,24.1976934 C26.0566305,24.464146 26.5598564,24.8665839 26.9997093,25.4182774 C27.8795447,26.5210073 28.3363748,28.0695328 28.3363748,30.0434891 C28.3363748,32.0120584 27.8795447,33.5569051 26.9997093,34.6595036 L26.9997093,34.6595036 Z M29.4234361,23.5410219 C27.937993,21.9048613 25.9171839,21.0731825 23.4698704,21.077781 C21.0114116,21.0731825 18.9864553,21.9048613 17.4988091,23.5410219 C16.4035832,24.7401898 15.7114046,26.2584964 15.4259019,28.0520584 L15.4259019,28.0566569 L15.2931944,29.4697226 L15.2931944,29.4787883 C15.2842522,29.6583942 15.2737548,29.8418102 15.2737548,30.0434891 C15.2737548,30.3409489 15.2868441,30.6294745 15.3040806,30.9094599 L15.3040806,30.9185255 L15.4847391,32.3317226 L15.4847391,32.3361898 C15.7983643,33.9944234 16.4642347,35.4120876 17.4988091,36.5452993 C18.9864553,38.1729197 21.0114116,39.0045985 23.4698704,39 C25.9171839,39.0045985 27.937993,38.1729197 29.4234361,36.5367591 C30.8994186,34.9129489 31.6423993,32.7166861 31.6423993,30.0434891 C31.6423993,27.365562 30.9020105,25.1641752 29.4234361,23.5410219 L29.4234361,23.5410219 Z" id="Fill-6" fill="#FFF"/><polyline id="Fill-8" fill="#FFF" points="23.4267145 29.0431095 12.654725 29.0431095 13.6681751 27.0519416 24.4401646 27.0519416 23.4267145 29.0431095"/><polyline id="Fill-9" fill="#FFF" points="21.4084974 33.0259708 12 33.0259708 13.0674921 31.0345401 22.4759895 31.0345401 21.4084974 33.0259708"/></g></g></svg>

<svg width="100" height="60" xmlns="http://www.w3.org/2000/svg"><g fill="none" fill-rule="evenodd"><rect fill="#D2642C" width="100" height="60" rx="4"/><path d="M85.117 22.405h-1.129c-.722 0-1.259.485-1.674 1.077l-1.117 1.592-.002.002-2.42 3.446-2.097-2.986c-.01-.015-.015-.028-.026-.044l-1.413-2.006c-.416-.591-.958-1.075-1.68-1.075h-1.047c-.723 0-1.191.483-.773 1.073l1.422 2.01.01.012 4.046 5.713v6.466c0 .725.591 1.316 1.314 1.315l.49-.001c.722 0 1.314-.595 1.314-1.319v-6.468l4.31-6.083c.013-.018.03-.035.043-.053l1.127-1.596c.418-.591.025-1.075-.698-1.075M37.954 30.18l4.06-3.907 2.87-2.762c.513-.494-.04-1.106-.743-1.106h-1.543c-.703 0-1.058.406-1.57.903l-3.006 2.913-.007.008-1.934 1.875v-2.126h-.008c.002-.028.008-.056.008-.084v-2.171c0-.724-.574-1.318-1.277-1.318h-.574c-.703 0-1.278.594-1.278 1.318v2.17c0 .029.006.057.008.085h-.008v11.705c0 .724.575 1.317 1.278 1.317h.574c.703 0 1.277-.593 1.277-1.317v-5.241l2.756 2.835h.003l2.712 2.793c.497.511.84.93 1.543.93h1.546c.703 0 1.002-.857.505-1.368l-7.192-7.451m30.565 1.624h-3.025c-.364 0-.548-.274-.412-.61l1.67-4.095c.137-.335.362-.335.5 0l1.678 4.096c.137.335-.048.61-.411.61zm6.076 5.552h.008l-5.274-13.113h-.003l-.247-.615c-.27-.673-1.085-1.224-1.812-1.224h-.524c-.726 0-1.541.551-1.809 1.225l-.244.614h-.01l-5.253 13.044h.002l-.198.49c-.272.672.101 1.222.828 1.222h1.175c.727 0 1.068-.556 1.32-1.235l.178-.477h.007l1.062-2.824h6.422l.087.227.065.134.947 2.532h.003l.152.408c.253.68.697 1.235 1.424 1.235h1.04c.727 0 1.098-.55.825-1.22l-.171-.423zM58.249 28.63a1.993 1.993 0 0 1-.536.774l.002-.002-.002.002c-.475.42-1.184.649-2.138.649h-1.723a.667.667 0 0 1-.67-.66V25.7c0-.361.301-.658.67-.658h1.723c.954 0 1.663.228 2.138.65.238.21.414.463.536.771.12.308.182.666.182 1.079 0 .417-.062.778-.182 1.088zm3.11 1.128c.27-.647.402-1.388.402-2.216 0-.822-.133-1.558-.401-2.202a4.158 4.158 0 0 0-1.207-1.633c-1.062-.874-2.61-1.302-4.578-1.302h-4.259c-.737 0-1.34.594-1.34 1.318v13.96c0 .724.603 1.317 1.34 1.317h.524c.738 0 1.341-.593 1.341-1.317v-4.994h2.394c1.968 0 3.516-.424 4.578-1.297a4.13 4.13 0 0 0 1.207-1.634zM27 34.66c-.44.55-.943.953-1.525 1.22-.58.267-1.245.403-2.005.403-.762 0-1.427-.136-2.01-.403-.586-.267-1.091-.673-1.535-1.225-.52-.643-.888-1.448-1.11-2.398l-.206-1.382a9.864 9.864 0 0 1-.015-1.374l.16-1.383c.206-1.081.598-1.987 1.171-2.7l-.002.005h.002c.444-.556.95-.959 1.535-1.225.583-.267 1.248-.403 2.01-.403.76 0 1.424.136 2.005.403.582.266 1.085.669 1.525 1.22.88 1.103 1.336 2.652 1.336 4.625 0 1.97-.456 3.514-1.336 4.617zm2.423-11.119c-1.485-1.636-3.506-2.468-5.953-2.463-2.459-.005-4.484.827-5.971 2.463-1.095 1.2-1.788 2.717-2.073 4.511v.005l-.133 1.413v.009c-.009.18-.02.363-.02.564 0 .298.014.586.031.866v.01l.18 1.413v.004c.314 1.658.98 3.076 2.015 4.21 1.487 1.627 3.512 2.459 5.97 2.454 2.448.005 4.469-.827 5.954-2.463 1.476-1.624 2.22-3.82 2.22-6.494 0-2.677-.741-4.879-2.22-6.502z" fill="#FFF"/><path fill="#FFF" d="M23.427 29.043H12.655l1.013-1.991H24.44l-1.013 1.991m-2.019 3.983H12l1.067-1.991h9.409l-1.068 1.991"/></g></svg>
